X:1
T:Title
%%score ( 1 2 3 )
L:1/8
Q:1/4=110
M:2/2
K:G
V:1 treble nm="Voice Oohs, Instrument 1"
V:2 treble 
V:3 treble 
V:1
 [B,FG]2 [CEA]2 [DGB][DFB] [EGc]2 | [CGB]4 [DFA]4 | [B,Fd]3 [EAc] [DGB]2 [CEA]2 | %3
 [DEB]2 [EFc]2 G2 F2 | [B,EG]2 [DGB]2 [FBd]2 [Adf]2 | [Gce]2 [EAc]2 [CGA]2 [A,DF]2 | %6
 [DAB]2 [CEG]2 [A,DE]2 [CDF]2 |[M:3/2] z4 z4 G4 |[M:2/2] [B,G]2 [CA]2 .A2 c2 | %9
[M:3/2] [DB]2- [DFB]2 [CA]2- [CDA]2 B,-[B,F][Ed]-[EAd] | %10
[M:2/2] [Dc]-[DEc][CB]-[CDB] [DA]-[DFA][GB][Ac] | G2 F6 | [B,G]-[B,FG][DB]-[DAB] Bc[Adf][Aeg] | %13
[M:3/2] [Ge]2 .B2 .G4 z2 .E2 |[M:2/2] .A2 .F2 .D2 [DF]2 | [B,DG]8[Q:1/4=165] |[M:6/4] B4 G2 d6 | %17
 c4 B2 A6 | B4 d2 G3 A B2 | c3 d B2 A4 d2 | g4 f2 e4 d2 | B4 ^D2 E4 F2 | G4 A2 B3 c d2 | %23
 B3 c A2 G6- | G12 |[Q:1/4=150] .[EG]6 d6 | .c6 A6 | .B6 .G6 | c3 d [DFB]2 [DF]2 [CE]2 [DF]2- | %29
 [DF]2 z2 [Acd]2 g2- [Fcg]2 [Gdf]2 | .[Gc]6 .B6 | .E6 .G6 | .B6 z6 | [B,DG]12[Q:1/4=120] | %34
[M:2/2] [B,FG]2 [CEA]2 [DGB]2 [EGc]2 | [CGB]4 [DFA]4 | [B,Fd]3 [EAc] [DGB]2 [CEA]2 | z4 .G4 | %38
 [B,EG]2 [DGB]2 [FBd]2 [Adf]2 | [Gce]2 [EAc]2 [CGA]2 [A,DF]2 | [DAB]2 [CEG]2 [A,DE]2 [CDF]2 | %41
 [B,DG]8 | .D2 [CA]2 .A2 c2 | [DGB]2 [DFB]2 [CA]2- [CDA]2 | %44
 [B,d]-[B,Fd][Dc]-[DBc] [CB]-[CEB][DA]-[DEA] |[M:3/2] [DB]2 .G2 .G4 z4 | %46
[M:2/2] [B,G]-[B,FG][DB]-[DAB] Bc[Af]-[Aef] |[M:3/2] .d2 .B2 .G4 z4 |[M:2/2] .A2 .F2 .D2 [DF]2 | %49
[M:3/2] [B,DG]8 z4[Q:1/4=165] |[M:6/4] B4 G2 d6 | c4 B2 A6 | B4 d2 G3 A B2 | c3 d B2 A4 d2 | %54
 g4 f2 e4 d2 | B4 ^D2 E4 F2 | G4 A2 B3 c d2 | B3 c A2 G6- | G12 |[Q:1/4=150] .[EG]6 d6 | .c6 A6 | %61
 .B6 .G6 | [EG]2 .[FA]4 A6 | z4 [Acd]2 g2- [Fcg]2 [Gdf]2 | .[Gc]6 .B6 | .E6 .G6 | .B6 z6 | %67
 [B,DG]12- | [B,DG]12 |] %69
V:2
 x8 | x8 | x8 | z4 [CA]4 | x8 | x8 | x8 |[M:3/2] [B,DG]8 [DF]2 [CE]2 | %8
[M:2/2] DEFG [DB]-[DGB][EF]E |[M:3/2] .G4 .E4 .E2 .G2 |[M:2/2] .G2 .F2 .E2 E2 | [CA]8 | %12
 .E2 .G2 .[Fd]4 |[M:3/2] dc[Ec]-[EAc] [CA]- [CFA]3- [C-FA-][CA][A,F]-[A,DF] | %14
[M:2/2] [DB]-[DGB][CG]-[CEG] [A,E]-[A,CE]B,C | x8 |[M:6/4] x12 | x12 | x12 | x12 | x12 | x12 | %22
 x12 | x12 | x12 | B2- [DFB]2 [CEG]2 [B,F]2 [CG]2 [DA]2 | [CG]2 [DF]2 [EGB]2 [DF]2 [CE]2 [DF]2 | %27
 [DG]2 [CE]2 [B,Fd]2 .[EF]3 A [DFB]2 | [EG]2 .[FA]4 A6- | A6 .[EB]6 | %30
 e2- [FAe]2 [GBd]2 [CG]2 [B,^D]2 [B,CD]2 | [G,B,]2 [A,C]2 [B,DF]2 [CE]2 [B,D]2 [DFA]2 | %32
 .[CG]3 c [GBd]2 B3 c [DFA]2 | x12 |[M:2/2] x8 | x8 | x8 | [DEB]2 [EFc]2 [CA]2- [CFA]2 | x8 | x8 | %40
 x8 | x8 | [B,G]-[B,EG]FG [DB]-[DGB][EF]E | z4 .E4 | .E2 .G2 .G2 .F2 | %45
[M:3/2] EF[Ec]-[EAc] [CA]2- [CFA]4 [B,EG]2 |[M:2/2] .E2 .G2 [Fd]2 .d2 | %47
[M:3/2] [Ge]-[Gce][Ec]-[EAc] [CA]2- [CFA]4 [A,EF][A,DF] | %48
[M:2/2] [DB]-[DGB][CG]-[CEG] [A,E]-[A,CE]B,C |[M:3/2] x12 |[M:6/4] x12 | x12 | x12 | x12 | x12 | %55
 x12 | x12 | x12 | x12 | B2- [DFB]2 [CEG]2 [B,F]2 [CG]2 [DA]2 | %60
 [CG]2 [DF]2 [EGB]2 [DF]2 [CE]2 [DF]2 | [DG]2 [CE]2 [B,Fd]2 .[EF]3 A [DFB]2 | %62
 c3 d [DFB]2 [DF]2 [CE]2 [DF]2 | z6 .[EB]6 | e2- [FAe]2 [GBd]2 [CG]2 [B,^D]2 [B,CD]2 | %65
 [G,B,]2 [A,C]2 [B,DF]2 [CE]2 [B,D]2 [DFA]2 | .[CG]3 c [GBd]2 B3 c [DFA]2 | x12 | x12 |] %69
V:3
 x8 | x8 | x8 | x8 | x8 | x8 | x8 |[M:3/2] x12 |[M:2/2] x8 |[M:3/2] x12 |[M:2/2] x8 | x8 | x8 | %13
[M:3/2] x12 |[M:2/2] x8 | x8 |[M:6/4] x12 | x12 | x12 | x12 | x12 | x12 | x12 | x12 | x12 | x12 | %26
 x12 | z6 z2 .[CE]4 | x12 | x12 | x12 | x12 | z2 .[EA]4 [EG]2 .[CE]4 | x12 |[M:2/2] x8 | x8 | x8 | %37
 x8 | x8 | x8 | x8 | x8 | x8 | x8 | x8 |[M:3/2] x12 |[M:2/2] x8 |[M:3/2] x12 |[M:2/2] x8 | %49
[M:3/2] x12 |[M:6/4] x12 | x12 | x12 | x12 | x12 | x12 | x12 | x12 | x12 | x12 | x12 | %61
 z6 z2 .[CE]4 | x12 | x12 | x12 | x12 | z2 .[EA]4 [EG]2 .[CE]4 | x12 | x12 |] %69

